**kern	**dynam
*clefG2	*
*k[b-e-]	*
*B-:	*
*M3/4	*
(>4f	f
=1	=1
4b-)	.
4b-'	.
4b-'	.
=2	=2
(>8b-L	.
8aJ)	.
4a'	.
4b-'	.
=3	=3
(>4.cc	.
8b-)	.
4a'	.
=4	=4
4b-'	.
4f'	.
4dd'	p
=5	=5
(>8ddL	.
8cc)	.
(>8cc	.
8b-)	.
8b-	.
8aJ	.
=6	=6
(>8ddL	.
8cc)	.
(>8cc	.
8b-)	.
(>8b-	.
8aJ)	.
=7	=7
(>8.b-TL	.
32aLL	.
32b-JJJ)	.
4cc	.
4cc	.
=8	=8
4b-	.
4r	.
(>4f	f
=9	=9
!!linebreak:original
4cc)	.
4cc'	.
4cc'	.
=10	=10
[8ccL	.
8b-J	.
4b-'	.
4a'	.
=11	=11
8aL	.
8gJ	.
(>8b-L	.
8gJ)	.
(>8fL	.
8enJ)	.
=12	=12
4f	.
4r	.
4r	.
=13!|:	=13!|:
4r	.
=14	=14
4r	p
4r	.
(>4f	.
=15	=15
4ff')	.
(>4ff	.
4ee-)	.
=16	=16
4dd-X'	.
(>4dd-	.
4cc)	.
=17	=17
4b-	.
(>4f'	.
4f')	.
=18	=18
4b-T	.
4a	.
4a	.
=19	=19
4b-T	.
4a	.
4r	.
=20	=20
4r	.
4r	.
(>4B-	f
=21	=21
4e-)	.
4e-'	.
4e-'	.
=22	=22
!!linebreak:original
4d	.
4r	.
(>4B-	.
=23	=23
4g)	.
4g'	.
4g'	.
=24	=24
4f	.
(>8b-L	.
8f)	.
(>8g	.
8e-J)	.
=25	=25
4f	.
(>8b-L	.
8f)	.
(>8e-	.
8dJ)	.
=26	=26
4c	.
4B-	.
4A	.
=27	=27
2B-	.
=28:|!	=28:|!
4B-X	.
4r	.
4r	.
=29!|:	=29!|:
4d	f
4d	p
4d	.
=30	=30
4e-	f
4e-	p
4e-	.
=31	=31
4c	f
4e-	p
4e-	.
=32	=32
4d	.
4r	.
4r	.
=33	=33
4f	.
4f	.
4f	.
=34	=34
!!linebreak:original
4f	.
4f	.
4f	.
=35	=35
4f	.
4f	.
4en	.
=36	=36
4f	.
4r	.
4r	.
=37:|!|:	=37:|!|:
4b-	.
4b-	.
4b-	.
=38	=38
4b-	.
4r	.
4r	.
=39	=39
4g	.
4g	.
(<8e-L	.
8dJ)	.
=40	=40
4qqd/	.
2c	.
4r	.
=41	=41
4d	f
4r	.
4r	.
=42	=42
4B-	f
4r	.
4r	.
=43	=43
4b-	p
4d	.
4c	.
=44	=44
4B-	.
4r	.
4r	.
=45:|!	=45:|!
!LO:TX:i:t=M.D.C.	!
2b-	.
==	==
*-	*-
!!!RDF**kern: > = above
!!!RDF**kern: < = below
